X:1
T:Title
%%score { 1 | 2 } 3
L:1/8
Q:1/4=120
M:4/4
K:F
V:1 treble nm="Grand Piano, Track 1"
V:2 treble 
V:3 bass nm="Grand Piano, Track 3"
V:1
 z4 B3 c | d2 d2 f2 f2 | d2 c2 d2 f2 | f4 f2 d2 | c4 B3 c | d2 d2 f2 f2 | B2 c2 d2 c2 | B8 | %8
 z4 B3 c | d2 d2 dc B2 | c4 f3 f | d2 c2 d2 f2 | g4 c3 c | d2 d2 f2 f2 | d2 c2 d2 f2 | f4 f2 d2 | %16
 c4 B3 c | d2 d2 f2 f2 | B2 c2 d2 c2 | B8 |] %20
V:2
 z4 D3 C | D2 B,2 B,2[K:bass] B,2 | G,2 F,2 G,2 B,2 | C4 C2 D2 | C4 D3 C | D2[K:bass] B,2 B,2 B,2 | %6
 G,2 F,2 G,2 A,2 | B,8 | z4 F,3 G, | B,2 B,2 B,[K:treble]C D2 | F4 F3 F | G2 F2 F2 C2 | D4 F3 C | %13
 D2[K:bass] B,2 B,2 B,2 | G,2 F,2 G,2 B,2 | C4 C2 D2 | C4 D3 C | D2[K:bass] B,2 B,2 B,2 | %18
 G,2 F,2 G,2 A,2 | B,8 |] %20
V:3
 z4 G,3 F, | D,2 D,2 B,,2 B,,2 | D,2 F,2 G,2 B,2 | F,4 F,2 D,2 | F,4 G,3 F, | D,2 D,2 B,,2 B,,2 | %6
 D,2 F,2 G,2 F,2 | B,,8 | z4 F,3 D, | B,,2 B,,2 F,2 G,2 | F,4 B,3 B, | G,2 F,2 F,2 F,2 | %12
 G,4 F,3 F, | D,2 D,2 B,,2 B,,2 | D,2 F,2 G,2 B,2 | F,4 F,2 D,2 | F,4 G,3 F, | D,2 D,2 B,,2 B,,2 | %18
 D,2 F,2 G,2 F,2 | B,,8 |] %20

